X: 1
T: Bour\'ee Infinie   [Am]
R: bour\'ee 2T
S: NEFFA 2019 French Jam handout p.5 #1, transcription by Claire Goujon
Z: 2019 John Chambers <jc:trillian.mit.edu>
M: 2/4
L: 1/8
K: Am
"^A"|:\
"Am"e>f ec | "F"A4 | "G"d>e dc | "E"Bc dB |\
"Am"e>f ec | "F"A4 | "G"d>e dc | "E"B4 :|
"^B"|:\
"Am"e4 | "F"f4 | "C"g>e dc | "E"Bc dB |\
"Am"e4 | "F"f4 | "C"g>e dc | "E"B4 :|
"^C"|:\
"Am"A>B cd | "F"e>f ec | "G"d>e dc | "E"Bc dB |\
"Am"A>B cd | "F"e>f ec | "G"d2 e2 | "E"B4 :|
